icons/linear-ele-container-box-takeaway.svg

<svg xmlns="http://www.w3.org/2000/svg" width="32px" height="32px" viewBox="0 0 32 32" version="1.1">
    <title>linear-ele-container-box-takeaway</title>
    <g id="linear-ele-container-box-takeaway" stroke-width="1" fill-rule="evenodd">
        <path d="M30,3 C30.5522847,3 31,3.44771525 31,4 L31,12 C31,12.5522847 30.5522847,13 30,13 L28,13 L28,28 C28,28.5522847 27.5522847,29 27,29 L5,29 C4.44771525,29 4,28.5522847 4,28 L4,13 L2,13 C1.44771525,13 1,12.5522847 1,12 L1,4 C1,3.44771525 1.44771525,3 2,3 L30,3 Z M26,13 L6,13 L6,27 L26,27 L26,13 Z M19,17 C19.5522847,17 20,17.4477153 20,18 C20,18.5522847 19.5522847,19 19,19 L13,19 C12.4477153,19 12,18.5522847 12,18 C12,17.4477153 12.4477153,17 13,17 L19,17 Z M29,5 L3,5 L3,11 L29,11 L29,5 Z" id="&#24418;&#29366;" fill-rule="nonzero" />
    </g>
</svg>

<svg xmlns="http://www.w3.org/2000/svg" viewBox="0 0 32 32"><path fill="currentColor" d="M30 3a1 1 0 0 1 1 1v8a1 1 0 0 1-1 1h-2v15a1 1 0 0 1-1 1H5a1 1 0 0 1-1-1V13H2a1 1 0 0 1-1-1V4a1 1 0 0 1 1-1zm-4 10H6v14h20zm-7 4a1 1 0 0 1 0 2h-6a1 1 0 0 1 0-2zM29 5H3v6h26z"/></svg>
